!!!!SEGMENT: pl-kk--kk-i-382--034_anonim--wesoly-nam-dzis-dzien-nastal.krn
!!!cenid: 18xx:1521
!!!COM: Anonim
!!!COM-rismid: pe30004985
!!!CDT:
!!!CNT:
!!!OTL: Wesoły nam dziś dzień nastał
!!!PDT:
!!!AGN: Sacred
!!!SMS-siglum: PL-Kk
!!!SMS-shelfmark: Kk.I.382
!!!SMS-shelfwork: 034 W
!!!SMS-variant:
!!!SMS-altvar:
!!!NIFC-rismid: 1001139656
!!!URL-scan: http://repozytorium.nifc.pl/skany/pl-kk-nut--i-382
!!!ONB-nifc: UWAGA: obsada: S (T 1), A (B 1), T 2, B 2; S (T 1): skan 0032; A (B 1): skan 0201; T 2: skan 0103; B 2: skan 0250
**kern	**text	**text	**kern	**text	**text	**kern	**text	**text	**kern	**text	**text
*part4	*part4	*part4	*part3	*part3	*part3	*part2	*part2	*part2	*part1	*part1	*part1
*staff4	*staff4	*staff4	*staff3	*staff3	*staff3	*staff2	*staff2	*staff2	*staff1	*staff1	*staff1
*I"Basso II	*	*	*I"Tenore II	*	*	*I"Alto vel Basso I	*	*	*I"Soprano vel Tenore I.	*	*
*I'B 2	*	*	*I'T 2	*	*	*I'A (B 1)	*	*	*I'S (T 1)	*	*
*clefF4	*	*	*clefG2	*	*	*clefF4	*	*	*clefG2	*	*
*	*	*	*ITrd7c12	*	*	*	*	*	*	*	*
*k[b-e-a-]	*	*	*k[b-e-a-]	*	*	*k[b-e-a-]	*	*	*k[b-e-a-]	*	*
*E-:	*	*	*E-:	*	*	*E-:	*	*	*E-:	*	*
*M4/4	*	*	*M4/4	*	*	*M4/4	*	*	*M4/4	*	*
*met(c)	*	*	*met(c)	*	*	*met(c)	*	*	*met(c)	*	*
=1!|:	=1!|:	=1!|:	=1!|:	=1!|:	=1!|:	=1!|:	=1!|:	=1!|:	=1!|:	=1!|:	=1!|:
*2\right	*	*	*2\right	*	*	*2\right	*	*	*2\right	*	*
!	!	!	!LO:TX:a:t=P:problem:w źródle klucz bez przenośnika oktawowego	!	!	!	!	!	!	!	!
!LO:TX:t=P:problem:all\right:global	!	!	!LO:TX:t=P:problem:all\right:global	!	!	!LO:TX:t=P:problem:all\right:global	!	!	!LO:TX:t=P:problem:all\right:global	!	!
4E-\	We-	Krol	4B-\	We-	Król,	4G\	We-	Król,	4ee-\	We-	Król,
4C/	-so-	nie-	4c\	-so-	nie-	4G\	-so-	nie-	4ee-\	-so-	nie-
4AA-/	-ły	-bies-	4c\	-ły	-bieś-	4A-\	-ły	-bi[e]s-	4ee-\	-ły	-bieś-
(>8F\L	nam,	-ki,	4B-\	nam,	-ki,	8A-\L	nam,	-ki,	(>8dd\L	nam,	-ki,
8E-\J)	.	.	.	.	.	8G\J	.	.	8ee-\J)	.	.
=2	=2	=2	=2	=2	=2	=2	=2	=2	=2	=2	=2
*	*	*	*^	*	*	*	*	*	*	*	*
!	!	!	!LO:N:vis=4	!	!	!	!	!	!	!	!	!
4D\	dzis	Knam,	8B-\	8ryy	dziś	Knam,	4F\	dziś	Knam,	4ff\	dziś	:Knam,:
!	!	!	!LO:N:vis=4	!LO:N:vis=4	!	!	!	!	!	!	!	!
.	.	.	8B-	8G	.	.	.	.	.	.	.	.
(<8C/L	dzień,	za-	(<8A-/L	2.ryy	dzień,	za-	4F\	dzień,	za-	(>8ee-\L	dzień,	za-
8BB-/J)	.	.	8B-/J)	.	.	.	.	.	.	8dd\J)	.	.
4FF/	na-	-wi-	4A-/	.	na-	-wi-	4E-\	na-	-wi-	4cc\	na-	-wi-
4BB-;>/	-stał,	-tał,	4G/	.	-stał,	-tał,	4D;>\	-stał,	-tał,	4b-;>\	-stał,	-tał,
*	*	*	*v	*v	*	*	*	*	*	*	*	*
!LO:LB:g=original	!	!	!LO:LB:g=original	!	!	!LO:LB:g=original	!	!	!LO:LB:g=original	!	!
=3	=3	=3	=3	=3	=3	=3	=3	=3	=3	=3	=3
4E-\	Któ-	Ja-	4G/	Któ-	Ja-	4E-\	Któ-	Ja-	4b-\	Któ-	Ja-
(>8E-\L	-re-	-ko	8G/L	-re-	-ko	4G\	-re-	-ko	(>8cc\L	-re-	-ko
8D\J)	.	.	8Bn/J	.	.	.	.	.	8dd\J)	.	.
4C/	-go	slicz-	4c\	-go	ślicz-	4G\	-go	ślicz-	4ee-\	-go	ślicz-
4GG/	z nas	-ny	4B-X\	z nas	-ny	4G\	z nas	-ny	4dd\	z nas	-ny
=4	=4	=4	=4	=4	=4	=4	=4	=4	=4	=4	=4
4AA-/	Każ-	Kwiat,	4A-/	Każ-	Kwiat,	4E-\	Każ-	Kwiat,	4cc\	Każ-	Kwiat,
4EE-/	-dy	za-	4G/	-dy	za-	4E-\	-dy	za-	4b-\	-dy	za-
4BB-/	zą-	-kwi-	4F/	zą-	-kwi-	4B-\	żą-	-kwi-	4a-/	zą-	-kwi-
4E-\	-dał,	-tał,	4E-/	-dał,	-tał,	4B-;<\	-dał	-tał,	4g;>/	-dał,	-tał,
!LO:LB:g=original	!	!	!LO:LB:g=original	!	!	!LO:LB:g=original	!	!	!	!	!
=5	=5	=5	=5	=5	=5	=5	=5	=5	=5	=5	=5
4C/	te-	po	4E-/	te-	po	4C/	te-	po	4g/	te-	po
4BB-/	-go	smier-	4E-/	-go	śmier-	4E-\	-go	śmier-	4g/	-go	śmier-
4AA-/	dnia	-ci,	4E-/	dnia	-ci,	4C/	dnia	-ci,	4a-/	dnia	-ci
4GG/	Chry-	się	4E-/	Chrys-	się	4E-\	Chrys-	się	4b-/	Chrys-	się
!	!	!	!	!	!	!	!	!	!LO:LB:g=original	!	!
=6	=6	=6	=6	=6	=6	=6	=6	=6	=6	=6	=6
*	*	*	*	*	*	*	*	*	*	*^	*
4BB-/	-stus	nam,	4F/	-tus	nam,	4D\	-tus	nam	4a-/	-tus	[[po	nam
4C/	zmart-	po-	4E-/	zmar-	po-	4E-\	zmar-	po-	4g/	zmar-	śmier-	po-
4AA-/	-wych-	-ka-	4A-/	-twych-	-ka-	4E-\	-twych-	-ka-	4cc\	-twych-	-ci,	-ka-
4EE-/	-wstał,	-zał	4G;>/	-wstał,	-zał,	4E-;>\	-wstał,	-zał	4b-;>\	-wstał,	się]]	-zał,
*	*	*	*	*	*	*	*	*	*	*v	*v	*
!LO:LB:g=original	!	!	!	!	!	!LO:LB:g=original	!	!	!	!	!
=7	=7	=7	=7	=7	=7	=7	=7	=7	=7	=7	=7
4E-\	Al-	Al-	4E-/	Al-	Al-	4E-\	Al-	Al-	4g/	Al-	Al-
4D-X\	-le-	-le-	4E-/	-le-	-le-	4E-\	-le-	-le-	4g/	-le-	-le-
4C/	-lu-	-lu-	(>8E-/L	-lu-	-lu-	4E-\	-lu-	-lu-	4a-/	-lu-	-lu-
.	.	.	8F/J)	.	.	.	.	.	.	.	.
4E-\	-ja	-ja	(>8G/L	-ja	-ja	4E-\	-ja	-ja	4b-\	-ja	-ja
.	.	.	8B-/J)	.	.	.	.	.	.	.	.
!	!	!	!LO:LB:g=original	!	!	!	!	!	!	!	!
=8	=8	=8	=8	=8	=8	=8	=8	=8	=8	=8	=8
!	!	!	!	!	!	!	!	!	!LO:TX:a:t=P:problem:znak "?" przed nutą	!	!
4E-\	Al-	Al-	4G\ 4e-	Al-	Al-	4B-\	Al-	Al-	4ee-\ 4gg	Al-	Al-
4AA-/	-le-	-le-	4c\	-le-	-le-	4A-\	-le-	-le-	4ff\	-le-	-le-
4BB-/	-lu-	-lu-	4B-\	-lu-	-lu-	4A-\	-lu-	-lu-	4dd\	-lu-	-lu-
4EE-;>/ 4E-	-ja	-ja	4B-;>\	-ja	-ja	4G;>\	-ja	-ja	4ee-\	-ja	-ja
=:|!	=:|!	=:|!	=:|!	=:|!	=:|!	=:|!	=:|!	=:|!	=:|!	=:|!	=:|!
*-	*-	*-	*-	*-	*-	*-	*-	*-	*-	*-	*-
!!!system-decoration: [(s1,s2,s3,s4)]
!!!RDF**kern: > = above
!!!RDF**kern: < = below
!!!EED:Mateusz Mrugas
!!!EST:2021-02-09
!!!ENC:Berenika Jozajtis
!!!END:2021-01-29
